icons/car/car-back.svg

<svg width="14" height="14" viewBox="0 0 14 14" fill="none" xmlns="http://www.w3.org/2000/svg">
<path d="M7.99121 2.5C9.40584 2.5 10.6618 3.40515 11.1094 4.74707L11.332 5.41504C11.3811 5.56192 11.4866 5.68349 11.625 5.75293C12.1612 6.02178 12.5 6.57009 12.5 7.16992V7.64453C12.5 8.44005 12.1041 9.14187 11.5 9.56836V10.5C11.5 11.0523 11.0523 11.5 10.5 11.5C9.94771 11.5 9.5 11.0523 9.5 10.5V10H4.5V10.5C4.5 11.0523 4.05228 11.5 3.5 11.5C2.94772 11.5 2.5 11.0523 2.5 10.5V9.56836C1.89587 9.14187 1.5 8.44005 1.5 7.64453V7.16992C1.5 6.57009 1.8388 6.02178 2.375 5.75293C2.51341 5.68349 2.61893 5.56192 2.66797 5.41504L2.89062 4.74707C3.33825 3.40515 4.59416 2.5 6.00879 2.5H7.99121ZM6.00879 3.5C5.02449 3.5 4.15029 4.12974 3.83887 5.06348L3.61621 5.73145C3.4834 6.12938 3.19821 6.45837 2.82324 6.64648C2.62527 6.74575 2.5 6.94846 2.5 7.16992V7.64453C2.5 8.39287 3.10713 9 3.85547 9H10.1445C10.8929 9 11.5 8.39287 11.5 7.64453V7.16992C11.5 6.94846 11.3747 6.74575 11.1768 6.64648C10.8018 6.45837 10.5166 6.12938 10.3838 5.73145L10.1611 5.06348C9.84971 4.12974 8.97551 3.5 7.99121 3.5H6.00879Z" fill="red"/>
<path d="M6.00293 7.49957H8.00293" stroke="red" stroke-linecap="round"/>
<path d="M10 7V8" stroke="red" stroke-linecap="round"/>
<path d="M4 7V8" stroke="red" stroke-linecap="round"/>
<path d="M8.29303 4C8.5582 4.00003 8.81255 4.10546 9.00006 4.29297C9.6299 4.92291 9.18382 5.9999 8.29303 6H5.70709C4.81626 5.99994 4.37017 4.92292 5.00006 4.29297C5.18758 4.10547 5.44192 4.00002 5.70709 4H8.29303Z" fill="red"/>
</svg>

<svg xmlns="http://www.w3.org/2000/svg" width="14" height="14" fill="none" viewBox="0 0 14 14"><path fill="red" d="M7.991 2.5c1.415 0 2.67.905 3.118 2.247l.223.668c.05.147.155.268.293.338.536.269.875.817.875 1.417v.475a2.35 2.35 0 0 1-1 1.923v.932a1 1 0 1 1-2 0V10h-5v.5a1 1 0 1 1-2 0v-.932a2.35 2.35 0 0 1-1-1.923V7.17c0-.6.339-1.148.875-1.417a.6.6 0 0 0 .293-.338l.223-.668A3.29 3.29 0 0 1 6.009 2.5zm-1.982 1c-.985 0-1.859.63-2.17 1.563l-.223.668a1.6 1.6 0 0 1-.793.915.59.59 0 0 0-.323.524v.475C2.5 8.393 3.107 9 3.855 9h6.29c.748 0 1.355-.607 1.355-1.355V7.17a.59.59 0 0 0-.323-.524 1.6 1.6 0 0 1-.793-.915l-.223-.668A2.29 2.29 0 0 0 7.991 3.5z"/><path stroke="red" stroke-linecap="round" d="M6.003 7.5h2M10 7v1M4 7v1"/><path fill="red" d="M8.293 4A1 1 0 0 1 9 4.293C9.63 4.923 9.184 6 8.293 6H5.707C4.817 6 4.37 4.923 5 4.293A1 1 0 0 1 5.707 4z"/></svg>
